X:310
T:Merry Harriers, The
M:4/4
L:1/8
R:reel
D:Altan: The Red Crow
Z:Devin McCabe
K:ADor
e~A3 eAgA|e~A3 BGBd|e~A3 e~g3|1abge dgfg:|2afge d2Bc||
!|:d~g3 b~g3|dggd BGBc|dggf gabg|1abge d2Bc:|2abge dgfg||
